svg/ricky/side/emotion/confusedlookingup.svg

<?xml version="1.0" encoding="UTF-8"?>
<svg width="500px" height="600px" viewBox="0 0 500 600" version="1.1" xmlns="http://www.w3.org/2000/svg" xmlns:xlink="http://www.w3.org/1999/xlink">
    <title>confusedlookingup</title>
    <defs>
        <polygon id="path-1" points="0.000262517026 0.084 173.375233 0.084 173.375233 192.102015 0.000262517026 192.102015"></polygon>
    </defs>
    <g id="confusedlookingup" stroke="none" stroke-width="1" fill="none" fill-rule="evenodd">
        <g transform="translate(154.000000, 64.000000)">
            <g id="face" transform="translate(0.000000, 0.916000)">
                <mask id="mask-2" fill="white">
                    <use xlink:href="#path-1"></use>
                </mask>
                <g id="Clip-5"></g>
                <path d="M171.0483,137.3859 C170.9033,137.5149 170.7923,137.6879 170.7623,137.9199 C169.5323,147.5449 162.4283,154.9569 155.6853,161.4389 C155.3623,161.3509 154.9873,161.4199 154.7383,161.7529 C150.6493,167.2129 148.0463,174.3569 142.1723,178.2569 C135.6443,182.5909 127.3673,181.2159 120.2963,179.1599 C116.3593,178.0159 112.5023,176.5929 108.6293,175.2519 C104.2833,173.7479 99.9393,172.2429 95.5933,170.7399 C87.9343,168.0879 80.0713,165.5149 73.3783,160.8089 C67.2353,156.4899 62.1393,149.8729 61.3943,142.2619 C61.3823,142.1729 61.3773,142.0839 61.3613,141.9949 C61.3173,141.4609 61.2913,140.9229 61.2913,140.3799 C61.2903,139.5659 60.3223,139.3819 59.8723,139.8209 C59.3973,139.9429 58.9963,140.4619 59.3073,141.0249 C59.5353,141.4389 59.6713,141.8779 59.7483,142.3229 C59.7653,142.5039 59.7813,142.6849 59.8033,142.8639 C59.8693,144.2729 59.2893,145.7079 58.2983,146.7449 C57.4493,147.6329 56.3583,148.1419 55.1933,148.3689 C54.8833,148.1629 54.5223,148.0429 54.1363,148.0699 C50.5763,148.3219 47.9103,145.0959 45.7253,142.7269 C42.8613,139.6229 40.1363,136.3869 37.5833,133.0219 C37.3713,132.7409 37.1113,132.5119 36.8263,132.3409 C36.7143,132.1489 36.5933,131.9609 36.4833,131.7669 C36.4773,131.7539 36.4713,131.7409 36.4653,131.7299 C36.4573,131.7139 36.4453,131.7029 36.4383,131.6889 C35.0863,129.2899 33.9883,126.7679 33.5093,124.0379 C33.2803,122.7339 33.2603,121.3619 33.5143,120.0479 C33.6403,119.9319 33.7593,119.7999 33.8643,119.6369 C34.9283,117.9939 36.6943,116.9089 38.5943,116.5359 C39.3823,116.6849 40.1803,116.6429 40.9353,116.4469 C41.3293,116.4939 41.7203,116.5739 42.1033,116.6899 C43.9483,117.2489 45.7143,118.6349 47.1943,119.8439 C48.7973,121.1549 50.1483,122.6169 51.0013,124.5219 C51.3433,125.2829 52.2753,125.5909 53.0783,125.4599 C53.3593,125.5239 53.6353,125.5319 53.8973,125.4909 C54.0603,125.4899 54.2133,125.4489 54.3443,125.3649 C54.8963,125.1449 55.3393,124.6929 55.5373,124.0629 C55.8913,122.9389 56.0103,121.8259 55.9533,120.7339 C56.0123,120.5409 56.0693,120.3499 56.1273,120.1569 C56.2283,119.8239 56.0623,119.4419 55.7713,119.2519 C55.5673,118.1719 55.2133,117.1139 54.7683,116.0819 C53.4953,109.0589 50.8123,102.3309 46.8593,96.3719 L48.4813,96.9899 C49.7573,97.4769 51.0673,98.1199 52.4233,98.3399 C53.5473,98.5229 54.5973,98.2619 55.4133,97.6389 C56.1263,97.9639 56.9753,97.9949 57.6543,97.5309 C59.3023,96.4039 60.7303,95.0759 61.9423,93.5309 C62.3573,93.0809 62.7223,92.5839 63.0083,92.0319 C63.1163,91.8239 63.1873,91.6189 63.2393,91.4179 C64.3073,89.7129 65.1593,87.8719 65.7723,85.9539 C68.4623,83.5629 69.2833,79.6619 69.2133,76.0009 C71.9853,79.3199 76.0613,81.4739 80.3883,81.9489 C85.9863,82.5659 91.3793,79.9259 94.7523,75.4969 C95.7053,74.2459 96.4523,72.8709 97.0063,71.4229 C97.2963,70.9069 97.5733,70.3849 97.8363,69.8559 C100.0573,73.5319 103.5773,76.4919 107.8263,77.3909 C112.8883,78.4609 118.0033,76.0769 120.5133,71.5449 C121.0583,70.5619 121.4303,69.5039 121.6353,68.4209 C121.9753,70.3099 122.5733,71.9479 124.0663,73.4409 C124.7103,74.0849 125.5283,74.6559 126.4203,75.1059 C127.9133,76.4769 129.7773,77.3779 132.1523,77.4499 C135.0273,77.5379 137.4763,75.7819 138.8613,73.3479 C139.9163,71.4949 140.3033,69.4359 140.4233,67.3429 C142.5003,70.4139 146.1233,72.4679 149.8863,72.2169 C153.7973,71.9559 157.1803,69.4299 158.8383,66.0089 C159.6523,66.4509 160.5353,66.7559 161.4603,66.9009 C161.5423,66.9399 161.6193,66.9879 161.7033,67.0239 C157.4143,72.4069 157.7183,80.3679 159.0823,86.7709 C160.6863,94.2959 164.1273,101.2539 166.9413,108.3659 C168.5623,112.4669 169.9903,116.6519 170.7913,120.9959 C170.8083,121.0859 170.8473,121.1519 170.8823,121.2199 C171.4693,126.5889 171.5233,132.0049 171.0483,137.3859 M117.8833,188.8349 C117.1193,189.6029 115.9013,189.9819 114.8753,190.2389 C113.7793,190.5129 112.5173,190.6419 111.4573,190.1569 C110.3373,189.6439 109.8643,188.4459 109.1063,187.5539 C108.7653,187.1539 108.3693,186.8629 107.9383,186.5719 C107.2823,186.1279 107.3523,185.6849 107.3303,184.9359 C107.2493,182.1359 107.1683,179.3349 107.0873,176.5349 C110.5703,177.7419 114.0603,178.9279 117.5673,180.0449 C117.5613,180.1429 117.5663,180.2449 117.6023,180.3579 C118.0743,181.8179 118.4023,183.3169 118.5223,184.8479 C118.6193,186.1059 118.8593,187.8539 117.8833,188.8349 M106.4553,3.6919 C105.7523,4.2209 104.9323,4.6619 104.0513,4.9889 C104.8063,4.4849 105.6123,4.0489 106.4553,3.6919 M136.7943,73.4409 C136.8193,73.4129 136.8443,73.3809 136.8683,73.3539 C135.8133,74.7409 134.3263,75.6979 132.5433,75.7819 C134.1463,75.4079 135.6633,74.6719 136.7943,73.4409 M143.5783,68.4159 C142.5953,67.5849 141.7743,66.5579 141.1933,65.4049 C141.9153,66.4679 142.7143,67.4769 143.5783,68.4159 M171.5003,116.7339 C167.9883,103.8099 159.5953,92.0199 159.8553,78.3009 C159.9283,74.4409 160.8553,70.4299 163.4793,67.5049 C163.9123,67.5579 164.3513,67.5719 164.7853,67.5309 C168.1543,67.2119 170.7353,64.4909 171.9513,61.4929 C173.4153,57.8859 173.4803,53.5769 173.3083,49.7399 C173.1833,46.9779 172.7313,44.1559 171.6813,41.5809 C171.2993,40.2199 170.5813,39.0019 169.6523,37.9809 C168.0103,35.8019 165.7903,34.0499 163.2033,33.2119 C163.1913,33.1789 163.1753,33.1469 163.1633,33.1139 C163.6033,30.9639 163.9003,28.6319 162.8153,26.6339 C162.4213,25.9109 161.8803,25.3109 161.2423,24.8699 C160.7513,22.8709 159.9433,21.0879 158.5403,19.6219 C158.1393,18.7569 157.5723,17.9689 156.8193,17.3269 C155.5443,16.2409 153.8753,15.7079 152.2413,15.7999 C151.7433,14.6939 151.0343,13.6469 150.0823,12.6939 C146.8423,9.4529 140.6903,8.1849 136.7523,10.9739 C136.4593,11.1819 136.1643,11.3959 135.8673,11.6099 C135.1263,8.8609 133.1883,6.5939 130.7023,5.1849 C130.5083,5.0309 130.3213,4.8689 130.1133,4.7279 C128.0403,3.3169 125.3353,2.7479 122.9073,3.3419 C122.3383,2.7839 121.7073,2.2929 121.0283,1.8699 C120.5283,1.2759 119.8553,0.8029 119.0993,0.5489 C118.2873,0.2779 117.4353,0.2119 116.5793,0.2259 C114.6383,-0.0761 112.6143,0.0949 110.7383,0.8179 C110.5513,0.8489 110.3613,0.8679 110.1753,0.9029 C106.6943,1.5449 103.1603,3.0479 100.7713,5.6169 C99.3163,5.6349 97.9233,5.2839 96.8583,4.4499 C93.6813,1.9629 90.3703,0.9649 87.0853,1.5909 C83.6393,1.9059 81.1683,4.2479 78.7223,6.5529 C77.8333,7.2779 76.9443,8.0019 76.0553,8.7269 C73.5073,7.2979 70.9733,5.8089 68.3443,4.5479 C65.8213,3.3379 62.9883,2.4959 60.2263,3.3969 C54.9223,5.1239 52.9683,10.6539 51.7073,15.5959 C47.7113,13.1979 42.7213,12.5509 38.2413,13.8839 C36.7453,14.3279 35.3533,15.0189 34.0693,15.8689 C31.8063,16.8919 29.7673,18.4469 28.1493,20.6259 C25.7333,23.8799 24.7343,27.7929 25.1943,31.5389 C24.4953,31.8209 23.6743,31.9739 23.1373,32.1849 C22.0383,32.6149 20.9803,33.1419 19.9863,33.7819 C17.4973,35.3829 15.3893,37.6019 13.9203,40.1779 C12.6113,41.7549 11.5773,43.5879 10.9543,45.7559 C9.4903,50.8549 10.7253,55.7419 13.5083,59.8039 C10.0693,60.6649 6.8513,62.3929 4.4483,65.0269 C2.6183,67.0319 1.4073,69.4799 0.9063,72.0739 C-0.5767,76.0229 -0.0617,80.6739 3.2623,83.7259 C3.4383,83.8879 3.6223,84.0319 3.8053,84.1809 C0.4353,86.0269 -0.4947,90.9599 0.2313,94.5029 C0.9473,98.0079 3.1173,101.1139 6.0923,103.0259 C5.6363,103.5479 5.2253,104.1269 4.8663,104.7669 C4.8513,104.7889 4.8323,104.8089 4.8173,104.8319 C4.4973,105.3059 4.2813,105.8209 4.1373,106.3549 C2.4113,111.0709 3.8603,117.3849 8.7493,119.7739 C9.8903,120.3309 10.0043,120.1529 10.4613,120.8639 C11.5083,122.4949 12.7793,123.6699 14.1593,124.4929 C13.1803,125.6229 12.6883,127.2039 13.0823,128.9819 C13.0933,129.0309 13.1073,129.0779 13.1173,129.1259 C13.0823,129.4279 13.0453,129.7299 13.0313,130.0319 C12.8633,133.8679 14.5133,137.4439 16.4183,140.6709 C18.4943,144.1889 20.5873,147.8239 23.0113,151.1149 C25.1953,154.0779 28.1283,156.7399 31.9203,157.2339 C34.9433,157.6259 38.1963,156.1819 39.5593,153.4699 C40.2093,154.0279 40.9263,154.5109 41.6873,154.9089 C42.6953,156.3309 44.2093,157.5359 45.4233,158.4799 C47.6723,160.2269 50.2613,161.6009 53.0583,162.2099 C58.1563,163.3219 63.8293,161.6729 66.8693,157.2849 C67.6613,158.1469 68.4903,158.9719 69.3633,159.7389 C75.6903,165.2929 83.7283,168.3429 91.5653,171.0819 C96.1843,172.6969 100.7983,174.3469 105.4243,175.9619 C105.5033,178.7089 105.5823,181.4569 105.6623,184.2039 C105.6953,185.3649 105.5323,186.7179 106.4983,187.5569 C106.8853,187.8929 107.3583,188.1029 107.7173,188.4719 C108.1153,188.8789 108.4003,189.3749 108.7303,189.8349 C110.1133,191.7649 112.1293,192.3599 114.4293,192.0049 C116.4153,191.6989 118.9963,190.8189 119.8473,188.8209 C120.4013,187.5229 120.2713,185.9369 120.1453,184.5659 C120.0213,183.2239 119.7643,181.9039 119.3933,180.6109 C126.1773,182.6399 133.7523,184.0209 140.4233,181.0849 C147.7283,177.8699 150.8513,170.2849 155.1183,164.0469 C155.2703,164.0249 155.4203,163.9719 155.5583,163.8389 C162.2943,157.4089 169.4283,150.2619 171.7903,141.0539 C172.0843,140.9509 172.3383,140.7109 172.3853,140.3279 C173.3343,132.6649 173.1943,124.9329 172.0223,117.3019 C171.9693,116.9539 171.7533,116.7839 171.5003,116.7339" id="Fill-4" fill="#231F20" mask="url(#mask-2)"></path>
            </g>
            <g id="eyes" transform="translate(80.689375, 78.562570)" fill="#231F20">
                <path d="M31.7495254,44.7745297 C31.1165254,48.3405297 30.1365254,52.7545297 26.9515254,54.9375297 C23.6685254,57.1875297 18.9155254,57.1415297 15.3955254,55.4975297 C12.1495254,53.9805297 9.7935254,51.1395297 8.7175254,47.7925297 C8.8275254,47.5795297 8.8645254,47.3245297 8.7495254,47.0535297 C7.3105254,43.6545297 5.8085254,40.0975297 5.6405254,36.3605297 C5.4785254,32.7935297 6.7905254,29.5315297 8.5305254,26.4845297 C10.1925254,23.5745297 11.9975254,20.5605297 14.1845254,18.0115297 C14.6565254,17.4605297 15.1685254,16.9335297 15.7085254,16.4415297 C15.4075254,17.7075297 15.4165254,19.0925297 15.5445254,20.3075297 C15.8835254,23.5235297 17.2085254,26.5555297 19.1215254,29.1435297 C20.9135254,31.5685297 23.1505254,33.7605297 25.6225254,35.4925297 C27.6035254,36.8805297 30.0825254,37.5965297 32.2435254,36.5585297 C32.3795254,39.3025297 32.2305254,42.0625297 31.7495254,44.7745297 M33.7725254,34.7115297 C33.3125254,29.8685297 31.9635254,25.1665297 29.7935254,20.8175297 C29.3755254,19.5485297 28.8115254,18.3345297 28.0915254,17.2075297 C28.0065254,17.0745297 27.9015254,16.9895297 27.7905254,16.9265297 C27.5595254,16.4315297 27.3145254,15.9435297 27.0355254,15.4735297 C26.1725254,14.0215297 24.8905254,12.6845297 23.3465254,12.0695297 C23.2185254,11.8635297 23.0085254,11.7115297 22.6895254,11.7154525 C22.4905254,11.7175297 22.2995254,11.7395297 22.1045254,11.7525297 C21.5535254,11.6845297 20.9785254,11.7085297 20.3845254,11.8555297 C20.2005254,11.9005297 20.0775254,11.9985297 19.9825254,12.1105297 C15.5215254,13.3475297 12.3495254,17.3545297 9.8735254,21.1905297 C6.5975254,26.2675297 3.3255254,31.5365297 4.1255254,37.8345297 C4.4975254,40.7685297 5.5225254,43.5435297 6.6485254,46.2635297 C6.6505254,46.2795297 6.6455254,46.2925297 6.6465254,46.3085297 C8.0485254,54.8375297 17.1355254,60.4985297 25.3925254,57.5295297 C29.5905254,56.0205297 31.5595254,52.3885297 32.6565254,48.2855297 C33.8345254,43.8805297 34.2035254,39.2485297 33.7725254,34.7115297" id="Fill-7"></path>
                <path d="M75.0903254,7.57912967 C71.0183254,4.07112967 65.5563254,3.36812967 60.3853254,3.01712967 C59.3273254,2.94512967 59.3323254,4.59312967 60.3853254,4.66412967 C65.0733254,4.98112967 70.2203254,5.55312967 73.9253254,8.74312967 C74.7253254,9.43212967 75.8953254,8.27212967 75.0903254,7.57912967" id="Fill-11"></path>
                <path d="M79.4009254,39.7793297 C78.9809254,42.4453297 78.0399254,45.5143297 76.0769254,47.4733297 C74.9169254,48.6313297 72.9899254,48.2833297 71.5019254,48.0593297 C69.9579254,47.8283297 68.4449254,47.3583297 67.1589254,46.4513297 C62.6579254,43.2723297 62.0419254,36.3293297 61.4589254,31.3353297 C60.8959254,26.5153297 60.9099254,21.3043297 62.6339254,16.7583297 C63.3889254,20.3753297 65.3149254,23.8163297 68.7569254,25.4613297 C71.7719254,26.9003297 76.1909254,26.7893297 78.4199254,24.1863297 C78.9159254,26.4193297 79.2039254,28.7053297 79.4319254,30.9693297 C79.7259254,33.8843297 79.8579254,36.8743297 79.4009254,39.7793297 M81.2649254,33.2813297 C81.0679254,29.8733297 80.6419254,26.3943297 79.8469254,23.0733297 C79.7549254,22.6863297 79.6499254,22.3003297 79.5409254,21.9163297 C79.5379254,21.7703297 79.5039254,21.6383297 79.4289254,21.5323297 C78.4979254,18.4143297 76.9869254,15.4233297 74.4919254,13.2773297 C73.4149254,12.3503297 72.2049254,11.6053297 70.9179254,11.0893297 C70.7889254,10.9873297 70.6619254,10.8823297 70.5289254,10.7843297 C69.5039254,10.0343297 68.2609254,9.26232967 66.9359254,9.41032967 C66.5349254,9.45532967 66.1749254,9.58932967 65.8549254,9.77832967 C65.5819254,9.63032967 65.2409254,9.63232967 64.9589254,9.93032967 C59.9549254,15.2383297 59.0149254,22.7773297 59.6479254,29.7603297 C59.9569254,33.1713297 60.4049254,36.6733297 61.3419254,39.9733297 C62.1169254,42.7053297 63.3689254,45.4653297 65.5959254,47.3153297 C68.0149254,49.3273297 71.7299254,50.2273297 74.8419254,49.8623297 C77.8709254,49.5063297 79.5449254,45.5563297 80.3389254,43.0203297 C81.3209254,39.8903297 81.4539254,36.5333297 81.2649254,33.2813297" id="Fill-13"></path>
                <path d="M16.4790254,0.720729667 C14.9920254,8.15772967 8.5760254,14.3497297 1.0000254,15.3247297 C0.460025401,15.3937297 0.00702540083,15.7347297 -1.91846539e-13,16.3247297 C-0.00397459917,16.8117297 0.465025401,17.3927297 1.0000254,17.3247297 C9.4310254,16.2397297 16.7300254,9.63972967 18.4080254,1.25172967 C18.6590254,-0.00527033285 16.7320254,-0.542270333 16.4790254,0.720729667" id="Fill-17"></path>
            </g>
            <path d="M139.3578,130.4562 C137.3158,127.7392 135.2228,125.0602 133.1698,122.3522 C131.1828,119.7342 128.7848,116.1842 130.6528,112.8622 C131.1718,111.9372 129.7508,111.1062 129.2308,112.0312 C127.5728,114.9792 128.5148,118.3592 130.2278,121.0502 C132.3118,124.3222 134.9118,127.3242 137.2638,130.4052 C138.6078,132.1652 143.2738,138.4042 138.6788,139.1682 C136.7328,139.4912 134.7038,138.6722 132.9208,137.9912 C131.0618,137.2812 129.2618,136.4372 127.5108,135.4942 C126.5788,134.9912 125.7458,136.4132 126.6798,136.9162 C129.4588,138.4122 132.4848,139.8642 135.5728,140.5842 C137.9918,141.1472 141.4728,141.0122 142.1288,138.0252 C142.7368,135.2632 140.9288,132.5492 139.3578,130.4562" id="nose" fill="#231F20"></path>
            <path d="M131.1039,163.6144 C129.0499,160.2814 129.4909,155.6954 131.9349,152.6814 C132.3079,152.6604 132.6639,152.4454 132.7959,151.9794 C132.9349,151.4904 133.2199,151.1274 133.5989,150.8714 C135.5869,155.0514 134.5689,160.5104 131.1039,163.6144 M134.9119,149.0744 C134.6799,148.6844 134.2159,148.5094 133.7819,148.6144 C132.7499,148.8664 131.9019,149.5024 131.3569,150.3644 C127.0949,154.2924 126.6779,161.2374 130.1979,165.7614 C130.4439,166.0784 131.0869,166.1554 131.4099,165.9184 C136.5479,162.1374 138.1909,154.5984 134.9119,149.0744" id="mouth" fill="#231F20"></path>
        </g>
    </g>
</svg>

<svg width="500" height="600" xmlns="http://www.w3.org/2000/svg" xmlns:xlink="http://www.w3.org/1999/xlink"><defs><path id="a" d="M0 .084h173.375v192.018H0z"/></defs><g fill="none" fill-rule="evenodd"><g transform="translate(154 64.916)"><mask id="b" fill="#fff"><use xlink:href="#a"/></mask><path d="M171.048 137.386a.842.842 0 00-.286.534c-1.23 9.625-8.334 17.037-15.077 23.519-.323-.088-.698-.02-.947.314-4.089 5.46-6.692 12.604-12.566 16.504-6.528 4.334-14.805 2.959-21.876.903-3.937-1.144-7.794-2.567-11.667-3.908-4.346-1.504-8.69-3.01-13.036-4.512-7.659-2.652-15.522-5.225-22.215-9.931-6.143-4.32-11.239-10.936-11.984-18.547-.012-.09-.017-.178-.033-.267a19.649 19.649 0 01-.07-1.615c0-.814-.969-.998-1.419-.56-.475.123-.876.642-.565 1.205.228.414.364.853.441 1.298.017.18.033.362.055.54.066 1.41-.514 2.845-1.505 3.882-.849.888-1.94 1.397-3.105 1.624a1.688 1.688 0 00-1.057-.3c-3.56.253-6.226-2.973-8.41-5.342a131.83 131.83 0 01-8.143-9.705 2.67 2.67 0 00-.757-.681c-.112-.192-.233-.38-.343-.574a.644.644 0 00-.018-.037c-.008-.016-.02-.027-.027-.041-1.352-2.4-2.45-4.921-2.929-7.651-.229-1.304-.249-2.676.005-3.99.126-.116.245-.248.35-.411 1.064-1.643 2.83-2.728 4.73-3.101a5.352 5.352 0 002.341-.09 6.81 6.81 0 011.168.244c1.845.559 3.611 1.945 5.091 3.154 1.603 1.31 2.954 2.773 3.807 4.678.342.76 1.274 1.069 2.077.938.281.064.557.072.82.03a.828.828 0 00.446-.125c.552-.22.995-.672 1.193-1.302a9.362 9.362 0 00.416-3.33c.06-.192.116-.383.174-.576.101-.333-.065-.715-.356-.905-.204-1.08-.558-2.138-1.003-3.17a52.681 52.681 0 00-7.909-19.71l1.622.618c1.276.487 2.586 1.13 3.942 1.35 1.124.183 2.174-.078 2.99-.701.713.325 1.562.356 2.241-.108a19.12 19.12 0 004.288-4 6.88 6.88 0 001.066-1.5 2.8 2.8 0 00.231-.613 24.16 24.16 0 002.533-5.464c2.69-2.391 3.511-6.292 3.441-9.953 2.772 3.319 6.848 5.473 11.175 5.948 5.598.617 10.991-2.023 14.364-6.452a16.34 16.34 0 002.254-4.074c.29-.516.567-1.038.83-1.567 2.221 3.676 5.741 6.636 9.99 7.535 5.062 1.07 10.177-1.314 12.687-5.846.545-.983.917-2.041 1.122-3.124.34 1.889.938 3.527 2.431 5.02.644.644 1.462 1.215 2.354 1.665 1.493 1.37 3.357 2.272 5.732 2.344 2.875.088 5.324-1.668 6.71-4.102 1.054-1.853 1.441-3.912 1.561-6.005 2.077 3.07 5.7 5.125 9.463 4.874 3.911-.261 7.294-2.787 8.952-6.208a8.127 8.127 0 002.622.892c.082.039.16.087.243.123-4.289 5.383-3.985 13.344-2.62 19.747 1.603 7.525 5.044 14.483 7.858 21.595 1.621 4.1 3.05 8.286 3.85 12.63.017.09.056.156.091.224a82.23 82.23 0 01.166 16.166m-53.165 51.449c-.764.768-1.982 1.147-3.008 1.404-1.096.274-2.358.403-3.418-.082-1.12-.513-1.593-1.711-2.35-2.603-.342-.4-.738-.691-1.169-.982-.656-.444-.586-.887-.608-1.636l-.243-8.401a438.008 438.008 0 0010.48 3.51.83.83 0 00.035.313c.472 1.46.8 2.959.92 4.49.097 1.258.337 3.006-.639 3.987M106.455 3.692a9.529 9.529 0 01-2.404 1.297c.755-.504 1.561-.94 2.404-1.297m30.34 69.749l.073-.087c-1.055 1.387-2.542 2.344-4.325 2.428 1.603-.374 3.12-1.11 4.251-2.341m6.784-5.025a9.645 9.645 0 01-2.385-3.011 26.153 26.153 0 002.385 3.01m27.922 48.319c-3.512-12.924-11.905-24.714-11.645-38.433.073-3.86 1-7.871 3.624-10.796.433.053.872.067 1.306.026 3.37-.32 5.95-3.04 7.166-6.038 1.464-3.607 1.53-7.916 1.357-11.753-.125-2.762-.577-5.584-1.627-8.16-.382-1.36-1.1-2.578-2.029-3.6-1.642-2.178-3.862-3.93-6.449-4.768-.012-.033-.028-.065-.04-.098.44-2.15.737-4.482-.348-6.48a5.103 5.103 0 00-1.573-1.764c-.49-2-1.299-3.782-2.702-5.248a6.68 6.68 0 00-1.72-2.295 6.537 6.537 0 00-4.579-1.527 10.445 10.445 0 00-2.159-3.106c-3.24-3.241-9.392-4.51-13.33-1.72-.293.208-.588.422-.885.636-.74-2.75-2.679-5.016-5.165-6.425-.194-.154-.38-.316-.589-.457-2.073-1.411-4.778-1.98-7.206-1.386a10.94 10.94 0 00-1.879-1.472A4.365 4.365 0 00119.1.549c-.812-.271-1.664-.337-2.52-.323-1.94-.302-3.965-.131-5.84.592-.188.03-.378.05-.564.085-3.48.642-7.015 2.145-9.404 4.714-1.455.018-2.848-.333-3.913-1.167-3.177-2.487-6.488-3.485-9.773-2.86-3.446.316-5.917 2.658-8.363 4.963l-2.667 2.174c-2.548-1.43-5.082-2.918-7.71-4.18-2.524-1.21-5.357-2.051-8.119-1.15-5.304 1.727-7.258 7.257-8.519 12.199-3.996-2.398-8.986-3.045-13.466-1.712-1.496.444-2.888 1.135-4.172 1.985a14.968 14.968 0 00-5.92 4.757c-2.416 3.254-3.415 7.167-2.955 10.913-.699.282-1.52.435-2.057.646-1.099.43-2.157.957-3.15 1.597a18.621 18.621 0 00-6.067 6.396 15.221 15.221 0 00-2.966 5.578c-1.464 5.099-.229 9.986 2.554 14.048-3.439.86-6.657 2.589-9.06 5.223a14.553 14.553 0 00-3.542 7.047c-1.483 3.949-.968 8.6 2.356 11.652.176.162.36.306.543.455-3.37 1.846-4.3 6.779-3.574 10.322.716 3.505 2.886 6.61 5.861 8.523a10.29 10.29 0 00-1.226 1.74c-.015.023-.034.043-.049.066-.32.474-.536.989-.68 1.523-1.726 4.716-.277 11.03 4.612 13.419 1.141.557 1.255.379 1.712 1.09 1.047 1.63 2.318 2.806 3.698 3.629-.979 1.13-1.47 2.71-1.077 4.489.011.049.025.096.035.144-.035.302-.072.604-.086.906-.168 3.836 1.482 7.412 3.387 10.639 2.076 3.518 4.17 7.153 6.593 10.444 2.184 2.963 5.117 5.625 8.91 6.119 3.022.392 6.275-1.052 7.638-3.764.65.558 1.367 1.04 2.128 1.439 1.008 1.422 2.522 2.627 3.736 3.57 2.25 1.748 4.838 3.122 7.635 3.73 5.098 1.113 10.771-.536 13.811-4.924a32.793 32.793 0 002.494 2.454c6.327 5.554 14.365 8.604 22.202 11.343 4.62 1.615 9.233 3.265 13.86 4.88.078 2.747.157 5.495.237 8.242.033 1.16-.13 2.514.836 3.353.387.336.86.546 1.22.915.397.407.682.903 1.012 1.363 1.383 1.93 3.4 2.525 5.7 2.17 1.985-.306 4.566-1.186 5.417-3.184.554-1.298.424-2.884.298-4.255a21.502 21.502 0 00-.752-3.955c6.784 2.029 14.36 3.41 21.03.474 7.305-3.215 10.428-10.8 14.695-17.038a.76.76 0 00.44-.208c6.736-6.43 13.87-13.577 16.232-22.785a.865.865 0 00.595-.726c.95-7.663.81-15.395-.363-23.026-.053-.348-.269-.518-.522-.568" fill="#231F20" mask="url(#b)"/></g><path d="M266.439 187.337c-.633 3.566-1.613 7.98-4.798 10.163-3.283 2.25-8.036 2.204-11.556.56-3.246-1.517-5.602-4.358-6.678-7.705a.843.843 0 00.032-.739c-1.44-3.399-2.941-6.956-3.11-10.693-.161-3.567 1.15-6.829 2.89-9.876 1.663-2.91 3.468-5.924 5.655-8.473a17.77 17.77 0 011.524-1.57c-.301 1.266-.292 2.651-.164 3.866.339 3.216 1.664 6.248 3.577 8.836a28.531 28.531 0 006.5 6.35c1.982 1.387 4.46 2.103 6.622 1.065a36.668 36.668 0 01-.494 8.216m2.023-10.063a39.45 39.45 0 00-3.98-13.894 15.973 15.973 0 00-1.701-3.61.83.83 0 00-.301-.28 16.524 16.524 0 00-.755-1.454c-.863-1.452-2.145-2.789-3.69-3.404a.723.723 0 00-.656-.354c-.2.002-.39.024-.585.037a4.704 4.704 0 00-1.72.103.742.742 0 00-.402.255c-4.461 1.237-7.633 5.244-10.11 9.08-3.275 5.077-6.547 10.346-5.747 16.644.372 2.934 1.397 5.71 2.523 8.43.002.015-.003.028-.002.044 1.402 8.53 10.489 14.19 18.746 11.221 4.198-1.509 6.167-5.14 7.264-9.244a38.603 38.603 0 001.116-13.574m41.318-27.132c-4.072-3.508-9.534-4.211-14.705-4.562-1.058-.072-1.053 1.576 0 1.647 4.688.317 9.835.889 13.54 4.079.8.689 1.97-.471 1.165-1.164m4.31 32.2c-.42 2.666-1.36 5.735-3.324 7.694-1.16 1.158-3.087.81-4.575.586-1.544-.231-3.057-.701-4.343-1.608-4.5-3.18-5.117-10.122-5.7-15.116-.563-4.82-.549-10.031 1.175-14.577.755 3.617 2.681 7.058 6.123 8.703 3.015 1.439 7.434 1.328 9.663-1.275.496 2.233.784 4.519 1.012 6.783.294 2.915.426 5.905-.03 8.81m1.863-6.498c-.197-3.408-.623-6.887-1.418-10.208a27.757 27.757 0 00-.306-1.157.678.678 0 00-.112-.384c-.93-3.118-2.442-6.11-4.937-8.255a12.806 12.806 0 00-3.574-2.188c-.129-.102-.256-.207-.389-.305-1.025-.75-2.268-1.522-3.593-1.374a2.706 2.706 0 00-1.08.368.71.71 0 00-.897.152c-5.004 5.308-5.944 12.847-5.31 19.83.308 3.41.756 6.913 1.693 10.213.775 2.732 2.027 5.492 4.254 7.342 2.42 2.012 6.134 2.912 9.246 2.547 3.03-.356 4.703-4.306 5.497-6.842.982-3.13 1.115-6.487.926-9.74m-64.786-32.56c-1.487 7.437-7.903 13.63-15.479 14.604-.54.07-.993.41-1 1-.004.487.465 1.068 1 1 8.431-1.085 15.73-7.685 17.408-16.073.251-1.257-1.676-1.794-1.929-.53m42.19 51.172c-2.042-2.717-4.135-5.396-6.188-8.104-1.987-2.618-4.385-6.168-2.517-9.49.519-.925-.902-1.756-1.422-.83-1.658 2.947-.716 6.327.997 9.018 2.084 3.272 4.684 6.274 7.036 9.355 1.344 1.76 6.01 8 1.415 8.763-1.946.323-3.975-.496-5.758-1.177a46.13 46.13 0 01-5.41-2.497c-.932-.503-1.765.92-.831 1.422 2.779 1.496 5.805 2.948 8.893 3.668 2.419.563 5.9.428 6.556-2.559.608-2.762-1.2-5.476-2.771-7.569m-8.254 33.158c-2.054-3.333-1.613-7.919.83-10.933a.918.918 0 00.862-.702c.139-.489.424-.852.803-1.108 1.988 4.18.97 9.64-2.495 12.743m3.808-14.54a1.028 1.028 0 00-1.13-.46 3.97 3.97 0 00-2.425 1.75c-4.262 3.928-4.68 10.873-1.16 15.397.247.317.89.394 1.213.157 5.138-3.78 6.78-11.32 3.502-16.844" fill="#231F20"/></g></svg>
